Papirus/64x64/apps/allegorithmic-Substance_Painter.svg

<svg width="64" height="64" version="1.1" xmlns="http://www.w3.org/2000/svg">
 <path d="m32.5 1.999975a3.4999999 3.4999999 0 0 0-3.5 3.5000314 3.4999999 3.4999999 0 0 0 3.5 3.4999937 3.4999999 3.4999999 0 0 0 3.5-3.4999937 3.4999999 3.4999999 0 0 0-3.5-3.5000314z" style="fill:#e2222f"/>
 <path d="m32.000002 11.00005a24.000001 24.000008 0 0 0-24.000002 24.000038 24.000001 24.000008 0 0 0 24.000002 23.999962 24.000001 24.000008 0 0 0 23.999999-23.999962 24.000001 24.000008 0 0 0-23.999999-24.000038z" style="fill:#e2222f"/>
 <path d="m56.5 48.999995a5.4999998 5.4999998 0 0 0-5.5 5.5 5.4999998 5.4999998 0 0 0 5.5 5.5 5.4999998 5.4999998 0 0 0 5.5-5.5 5.4999998 5.4999998 0 0 0-5.5-5.5z" style="fill:#e2222f"/>
 <path d="m7.5000001 49.999995a2.4999999 2.4999999 0 0 0-2.5 2.5 2.4999999 2.4999999 0 0 0 2.5 2.5 2.4999999 2.4999999 0 0 0 2.4999999-2.5 2.4999999 2.4999999 0 0 0-2.4999999-2.5z" style="fill:#e2222f"/>
 <path d="m32.000001 15.999987-16.000001 9v8.000013l23 8.000012-6.999999 3.999988-9-5.000013v-1.999975l-7.000001-2.448831v8.448831l16.000001 9 16.000002-9v-8.000012l-23.000002-8.000013 7-3.999987 9 5.000012v1.999975l7.000002 2.501821v-8.501821z" style="fill:#ffffff"/>
 <path d="m32 23.999962-7 3.999987 1.087891 0.378936 5.912109-3.378936 9.000001 5.000013v-0.999987zm9.000001 6.999987v1.000026l6.999999 2.501933v-0.999987zm-25.000001 2.000013v0.999987l21.912108 7.621115 1.087892-0.62109zm0 11.000012v0.999988l16 9 16-9v-0.999988l-16 9z" style="opacity:.2"/>
 <path d="m32.5 1.9999947c-1.932997 0-3.5 1.5670034-3.5 3.5 0.0013 0.1654297 0.01438 0.3305572 0.03906 0.4941406 0.251012-1.7184883 1.724216-2.9929929 3.46094-2.9941406 1.740575 0.00199 3.215199 1.2827172 3.460938 3.0058594 0.02524-0.1674528 0.0383-0.3365167 0.03906-0.5058594 0-1.9329966-1.567004-3.5-3.5-3.5zm-0.5 8.9746093c-13.254839-1.3e-5 -24.000013 10.745161-24 24 0.00589 0.142639 0.013051 0.285223 0.021484 0.427735 0.3334912-13.005626 10.968617-23.377408 23.978516-23.384766 13.080459 0.01068 23.743456 10.493879 23.976562 23.572266 0.01044-0.20497 0.01826-0.410065 0.02344-0.615235 1.3e-5 -13.254839-10.745161-24.000013-24-24zm24.5 38.025391c-3.037566 0-5.5 2.462434-5.5 5.5 4.49e-4 0.171526 0.0089 0.342938 0.02539 0.513672 0.251796-2.836463 2.626994-5.01168 5.47461-5.013672 2.838045 6.97e-4 5.20955 2.160687 5.474609 4.986328 0.01564-0.161655 0.02411-0.323923 0.02539-0.486328 0-3.037566-2.462434-5.5-5.499999-5.5zm-49 1c-1.3807119 0-2.5 1.119288-2.5 2.5 4.683e-4 0.169321 0.018137 0.338157 0.052734 0.503906 0.2358117-1.164712 1.2589229-2.002471 2.447266-2.003906 1.1859475 6.75e-4 2.2082233 0.834487 2.4472656 1.996094 0.034075-0.163193 0.051741-0.329385 0.052734-0.496094 0-1.380712-1.1192881-2.5-2.4999996-2.5z" style="fill:#fffffd;opacity:.2"/>
 <path d="m29.039062 5.9941041a3.5 3.5 0 0 0-0.03906 0.5058519 3.5 3.5 0 0 0 3.5 3.5000315 3.5 3.5 0 0 0 3.5-3.5000315 3.5 3.5 0 0 0-0.03906-0.4941354 3.5 3.5 0 0 1-3.460939 2.9941417 3.5 3.5 0 0 1-3.460937-3.0058582z" style="opacity:.2"/>
 <path d="M 8.0224013,35.384541 A 24.000001,24.000001 0 0 0 7.9999883,36 24.000001,24.000001 0 0 0 31.99999,60.000037 24.000001,24.000001 0 0 0 55.99999,36 24.000001,24.000001 0 0 0 55.97769,35.572044 24.000001,24.000001 0 0 1 32.000112,58.95651 24.000001,24.000001 0 0 1 8.0225295,35.384541 Z" style="opacity:.2"/>
 <path d="m9.9472655 52.996081a2.4999999 2.4999999 0 0 1-2.4472656 2.003906 2.4999999 2.4999999 0 0 1-2.4472655-1.996082 2.4999999 2.4999999 0 0 0-0.052736 0.496101 2.4999999 2.4999999 0 0 0 2.4999998 2.500006 2.4999999 2.4999999 0 0 0 2.5000002-2.500006 2.4999999 2.4999999 0 0 0-0.052733-0.503925z" style="opacity:.2"/>
 <path d="m61.97461 54.986343a5.4999998 5.4999998 0 0 1-5.474608 5.013656 5.4999998 5.4999998 0 0 1-5.474611-4.98633 5.4999998 5.4999998 0 0 0-0.02532 0.486311 5.4999998 5.4999998 0 0 0 5.500002 5.500007 5.4999998 5.4999998 0 0 0 5.499999-5.500007 5.4999998 5.4999998 0 0 0-0.02532-0.513637z" style="opacity:.2"/>
</svg>

<svg xmlns="http://www.w3.org/2000/svg" width="64" height="64" version="1.1">
 <circle style="opacity:0.2" cx="32.5" cy="6.5" r="3.5"/>
 <circle style="opacity:0.2" cx="32" cy="36" r="24"/>
 <circle style="opacity:0.2" cx="56.5" cy="55.5" r="5.5"/>
 <circle style="opacity:0.2" cx="7.5" cy="53.5" r="2.5"/>
 <circle style="fill:#e2222f" cx="32.5" cy="5.5" r="3.5"/>
 <circle style="fill:#e2222f" cx="32" cy="35" r="24"/>
 <circle style="fill:#e2222f" cx="56.5" cy="54.5" r="5.5"/>
 <circle style="fill:#e2222f" cx="7.5" cy="52.5" r="2.5"/>
 <path style="opacity:0.2;fill:#ffffff" d="M 32.5 2 A 3.5 3.5 0 0 0 29 5.5 A 3.5 3.5 0 0 0 29.039 6.0059 A 3.5 3.5 0 0 1 32.5 3 A 3.5 3.5 0 0 1 35.961 5.9941 A 3.5 3.5 0 0 0 36 5.5 A 3.5 3.5 0 0 0 32.5 2 z"/>
 <path style="opacity:0.2;fill:#ffffff" d="M 32 11 A 24 24 0 0 0 8 35 A 24 24 0 0 0 8.0215 35.582 A 24 24 0 0 1 32 12 A 24 24 0 0 1 55.979 35.418 A 24 24 0 0 0 56 35 A 24 24 0 0 0 32 11 z"/>
 <path style="opacity:0.2;fill:#ffffff" d="M 56.5 49 A 5.5 5.5 0 0 0 51 54.5 A 5.5 5.5 0 0 0 51.025 54.986 A 5.5 5.5 0 0 1 56.5 50 A 5.5 5.5 0 0 1 61.975 55.014 A 5.5 5.5 0 0 0 62 54.5 A 5.5 5.5 0 0 0 56.5 49 z"/>
 <path style="opacity:0.2;fill:#ffffff" d="M 7.5 50 A 2.5 2.5 0 0 0 5 52.5 A 2.5 2.5 0 0 0 5.0527 52.996 A 2.5 2.5 0 0 1 7.5 51 A 2.5 2.5 0 0 1 9.9473 53.004 A 2.5 2.5 0 0 0 10 52.5 A 2.5 2.5 0 0 0 7.5 50 z"/>
 <path style="opacity:0.2" d="M 32,17 16,26 V 34 L 39,42 32,46 23,41 V 39 L 16,36.551 V 45 L 32,54 48,45 V 37 L 25,29 32,25 41,30 V 32 L 48,34.502 V 26 Z"/>
 <path style="fill:#ffffff" d="M 32,16 16,25 V 33 L 39,41 32,45 23,40 V 38 L 16,35.551 V 44 L 32,53 48,44 V 36 L 25,28 32,24 41,29 V 31 L 48,33.502 V 25 Z"/>
</svg>
